X: 61
T: Une filleresse d'estouppes / Sil y a compagnon / Vostre amour
N: Derived from Bus3057-Une_filleresse_destouppes__Sil_y_a_compagnon__Vostre_amour.krn
C: Antoine Busnoys
%%abc-version 2.0
%%abcx-abcm2ps-target-version 5.9.1 (29 Sep 2008)
%%abc-creator hum2abc beta
%%abcx-conversion-date 2019/02/16 20:26:07
%%abc-edited-by Jesse Rodin
%%abc-edited-by Chris Gage 04-22-2015
%%abcx-initial-encoding-date 2016/02/08/
%%humdrum-veritas 2796223740
%%humdrum-veritas-data 3448519188
%%linebreak <none>
%%barnumbers 0
L: 1/4
M: 2/1
Q: 1/2=120
%%staves [1 2 3 4]
V: 1 clef=treble
V: 2 clef=treble
V: 3 clef=treble
V: 4 clef=treble-8
K: F
[V:1] d8 | 
[V:2] A8 | 
[V:3] z8 | 
[V:4] d8 | 
[V:1] e4d4- | 
[V:2] A4F4 | 
[V:3] z8 | 
[V:4] c4d4 | 
[V:1] d4^c4 | 
[V:2] G8 | 
[V:3] z8 | 
[V:4] e8 | 
[V:1] d8 | 
[V:2] A8 | 
[V:3] D4F4 | 
[V:4] d8 | 
[V:1] G8 | 
[V:2] =B8 | 
[V:3] E4D4 | 
[V:4] z4=B4 | 
[V:1] z8 | 
[V:2] c8 | 
[V:3] A6G2 | 
[V:4] A8- | 
[V:1] A4c4 | 
[V:2] c6=BA | 
[V:3] E4F4 | 
[V:4] A4A4 | 
[V:1] B4A4- | 
[V:2] G4A4 | 
[V:3] D4C4 | 
[V:4] B4c4 | 
[V:1] A4d4 | 
[V:2] c4=B4- | 
[V:3] z8 | 
[V:4] A4G4 | 
[V:1] c4A4 | 
[V:2] B2A2A4- | 
[V:3] z8 | 
[V:4] A8 | 
[V:1] d6cB | 
[V:2] A4G4 | 
[V:3] z8 | 
[V:4] B8 | 
[V:1] c2e3dcB | 
[V:2] A8 | 
[V:3] z8 | 
[V:4] A2c3BAG | 
[V:1] A2B4AG | 
[V:2] z8 | 
[V:3] D4E4 | 
[V:4] F2G4FE | 
[V:1] F2f4e2 | 
[V:2] z8 | 
[V:3] F4G4 | 
[V:4] D2d2B2c2 | 
[V:1] f3ed2cB | 
[V:2] z8 | 
[V:3] F6ED | 
[V:4] d8 | 
[V:1] c2d4^c2 | 
[V:2] A8 | 
[V:3] E4E4 | 
[V:4] A8 | 
[V:1] d4z4 | 
[V:2] A4F4 | 
[V:3] D8 | 
[V:4] f8 | 
[V:1] c8 | 
[V:2] G8 | 
[V:3] z8 | 
[V:4] _e8 | 
[V:1] d4d4 | 
[V:2] A8 | 
[V:3] D4F4 | 
[V:4] d8 | 
[V:1] e4f4- | 
[V:2] =B8 | 
[V:3] E4D4 | 
[V:4] z8 | 
[V:1] f2edc3d | 
[V:2] c8 | 
[V:3] A6G2 | 
[V:4] A6B2 | 
[V:1] e4A4 | 
[V:2] c6=BA | 
[V:3] E4F4 | 
[V:4] c4F4 | 
[V:1] B4c4 | 
[V:2] G4A4 | 
[V:3] D4C4 | 
[V:4] z4F4- | 
[V:1] A4d4- | 
[V:2] c4=B4- | 
[V:3] z8 | 
[V:4] F4G4- | 
[V:1] d4c4 | 
[V:2] B2A2A4- | 
[V:3] z8 | 
[V:4] G4A4 | 
[V:1] =B8 | 
[V:2] A4^G4 | 
[V:3] z8 | 
[V:4] E8 | 
[V:1] A4z2A2 | 
[V:2] A8 | 
[V:3] z8 | 
[V:4] z2F3GA2 | 
[V:1] F2B4c2 | 
[V:2] z8 | 
[V:3] D4E4 | 
[V:4] B2G4A2 | 
[V:1] A2d4e2 | 
[V:2] z8 | 
[V:3] F4G4 | 
[V:4] F2B4c2 | 
[V:1] c2f4e2 | 
[V:2] z8 | 
[V:3] A6G2 | 
[V:4] A2F2c4 | 
[V:1] f2d4c2 | 
[V:2] z8 | 
[V:3] F4F4 | 
[V:4] d8 | 
[V:1] e4z4 | 
[V:2] A8 | 
[V:3] E8 | 
[V:4] A8 | 
[V:1] e8 | 
[V:2] E8 | 
[V:3] z8 | 
[V:4] z4A4 | 
[V:1] e6dc | 
[V:2] E6F2 | 
[V:3] z8 | 
[V:4] c6d2 | 
[V:1] =B4c2f2- | 
[V:2] G4A4- | 
[V:3] z8 | 
[V:4] e4c2d2- | 
[V:1] fedcd4 | 
[V:2] A4G4 | 
[V:3] z8 | 
[V:4] dcBAB4 | 
[V:1] c2A3GE2 | 
[V:2] A8 | 
[V:3] z8 | 
[V:4] A4d2c2 | 
[V:1] F4E4 | 
[V:2] A4z4 | 
[V:3] z8 | 
[V:4] A2d4^c2 | 
[V:1] D4C2D2- | 
[V:2] A8 | 
[V:3] z8 | 
[V:4] d4e2f2- | 
[V:1] D2E2F3E | 
[V:2] A8 | 
[V:3] z8 | 
[V:4] fec2d4 | 
[V:1] C4z4 | 
[V:2] E8 | 
[V:3] z8 | 
[V:4] z2e4c2- | 
[V:1] c4B2A2 | 
[V:2] E6F2 | 
[V:3] z8 | 
[V:4] c2BAG2A2 | 
[V:1] d4c2A2- | 
[V:2] G4A4- | 
[V:3] z8 | 
[V:4] B4A2d2 | 
[V:1] A2d4^c2 | 
[V:2] A4G4 | 
[V:3] z8 | 
[V:4] c2f2e4 | 
[V:1] d8 | 
[V:2] A8 | 
[V:3] D4F4 | 
[V:4] d2f4ed | 
[V:1] z4d4 | 
[V:2] A4z4 | 
[V:3] E4D4 | 
[V:4] ^c3=Bd4 | 
[V:1] e4e4 | 
[V:2] c8 | 
[V:3] A6G2 | 
[V:4] A6B2 | 
[V:1] A4c4 | 
[V:2] c6=BA | 
[V:3] E4F4 | 
[V:4] c4z2F2 | 
[V:1] B2G4^F2 | 
[V:2] G4A4 | 
[V:3] D4C4 | 
[V:4] G2B2A4 | 
[V:1] G2d2c2e2- | 
[V:2] =B4A4 | 
[V:3] D4E4 | 
[V:4] G4z2c2 | 
[V:1] e2d2B2c2 | 
[V:2] A4G4 | 
[V:3] F4G4 | 
[V:4] d2f2e4 | 
[V:1] d2cBA3B | 
[V:2] A8- | 
[V:3] F6ED | 
[V:4] d6cB | 
[V:1] c2d3^cc=B | 
[V:2] A8- | 
[V:3] E4E4 | 
[V:4] A8 | 
[V:1] d8 |]  
[V:2] A8 |]  
[V:3] D8 |]  
[V:4] D8 |]  



